X: 8869
T: Cullivan From Cavan
R: reel
M: 4/4
K: Gmajor
|:"D"D2 dc ABcA|"G"(3Bcd GA BGdB|"D"c2 AG FADE|"D"FdcA "G"BG G2:|
|:"D"(3ABc de fagf|"G"gdBd gbag|"D"fade fgag|"D"fdcA "G"BG G2:|

